img/svgicons/bag.svg

<svg width="24" height="24" viewBox="0 0 24 24" fill="none" xmlns="http://www.w3.org/2000/svg">
<path d="M18 6H16C16 3.79 14.21 2 12 2C9.79 2 8 3.79 8 6H6C4.9 6 4 6.9 4 8V20C4 21.1 4.9 22 6 22H18C19.1 22 20 21.1 20 20V8C20 6.9 19.1 6 18 6ZM12 4C13.1 4 14 4.9 14 6H10C10 4.9 10.9 4 12 4ZM18 20H6V8H8V10C8 10.55 8.45 11 9 11C9.55 11 10 10.55 10 10V8H14V10C14 10.55 14.45 11 15 11C15.55 11 16 10.55 16 10V8H18V20Z" fill="#202020"/>
</svg>

<svg width="24" height="24" fill="none" xmlns="http://www.w3.org/2000/svg"><path d="M18 6h-2c0-2.21-1.79-4-4-4S8 3.79 8 6H6c-1.1 0-2 .9-2 2v12c0 1.1.9 2 2 2h12c1.1 0 2-.9 2-2V8c0-1.1-.9-2-2-2zm-6-2c1.1 0 2 .9 2 2h-4c0-1.1.9-2 2-2zm6 16H6V8h2v2c0 .55.45 1 1 1s1-.45 1-1V8h4v2c0 .55.45 1 1 1s1-.45 1-1V8h2v12z" fill="#202020"/></svg>
